X:1
T:Descend from heaven, immortal Dove
T:Descend from heaven, immortal Dove - Elmstead (Thomas Clark)
C:Thomas Clark
Z:Text: Isaac Watts
%%score [ 1 2 3 4 ]
L:1/8
M:3/4
K:Eb
V:1 treble nm="SOPRANO" snm="S."
V:2 treble nm="ALTO" snm="A."
V:3 treble-8 transpose=-12 nm="TENOR" snm="T."
V:4 bass nm="BASS" snm="B."
V:1
"^Affettuoso" e2 | d4 c2 | B4 c2 | B4 A2 | G4 B2 | E4 F2 | (GA Bc) (de) | (B2 A2) G2 | (G2 F2) F2 | %9
w: O|for a|sight, a|pleas- ing|sight Of|our al-|migh- * * * ty _|Fa- * ther’s|throne! _ There|
w: Des-|cend from|heav’n, im-|mor- tal|Dove, Stoop|down and|take _ _ _ us _|on _ thy|wings, _ And|
w: Be-|yond, be-|yond this|low- er|sky, Up|where e-|ter- * * * nal _|a- * ges|roll; _ Where|
 (B>c d2) B2 | (c>d e2) c2 | (d>e f2) d2 | e4 d2 | (c2 f2) e2 | (d2 c2) B2 | (cd/e/ d2) c2 | %16
w: sits _ _ our|Sa- * * viour|crown’d _ _ with|light, Cloth’d|in _ a|bo- * dy|like _ _ _ our|
w: mount, _ _ and|bear _ _ us|far _ _ a-|bove The|reach _ of|these _ in-|fer- * * * ior|
w: so- * * lid|plea- * * sures|ne- * * ver|die, And|fruits _ im-|mor- * tal|feast _ _ _ the|
 B4 B2 | e4 G2 | c4 B2 | (A>G F2) B2 | (A2 G2) B2 | (c2 fe) (dc) | (B2 A2) (GB) | (A2 G2) F2 | %24
w: own, There|sits our|Sa- viour|crown’d _ _ with|light, _ Cloth’d|in _ _ a _|bo- * dy _|like _ our|
w: things, And|mount, and|bear us|far _ _ a-|bove _ The|reach _ _ of _|these _ in- *|fer- * ior|
w: soul, Where|so- lid|plea- sures|ne- * * ver|die, _ And|fruits _ _ im- *|mor- * tal _|feast _ the|
 E4 |] %25
w: own.|
w: things.|
w: soul.|
V:2
 G2 | F4 A2 | E4 E2 | E4 D2 | E4 D2 | E4 B,2 | E4 G2 | F4 E2 | (E2 D2) D2 | F4 F2 | F4 F2 | F4 F2 | %12
w: O|for a|sight, a|pleas- ing|sight Of|our al-|migh- ty|Fa- ther’s|throne! _ There|sits our|Sa- viour|crown’d with|
w: Des-|cend from|heav’n, im-|mor- tal|Dove, Stoop|down and|take us|on thy|wings, _ And|mount, and|bear us|far a-|
w: Be-|yond, be-|yond this|low- er|sky, Up|where e-|ter- nal|a- ges|roll; _ Where|so- lid|plea- sures|ne- ver|
 F4 F2 | F4 F2 | (F2 E2) D2 | (G2 F2) E2 | D4 E2 | E4 E2 | E4 E2 | E4 (DF) | B,4 E2 | %21
w: light, Cloth’d|in a|bo- * dy|like _ our|own, There|sits our|Sa- viour|crown’d with _|light, Cloth’d|
w: bove The|reach of|these _ in-|fer- * ior|things, And|mount, and|bear us|far a- *|bove The|
w: die, And|fruits im-|mor- * tal|feast _ the|soul, Where|so- lid|plea- sures|ne- ver _|die, And|
 (E2 AG) (FE) | (E2 D2) (EG) | (F2 E2) D2 | E4 |] %25
w: in _ _ a _|bo- * dy _|like _ our|own.|
w: reach _ _ of _|these _ in- *|fer- * ior|things.|
w: fruits _ _ im- *|mor- * tal _|feast _ the|soul.|
V:3
 B2 | B4 e2 | e4 A2 | G4 B2 | B4 A2 | G4 B2 | (BA GA) B2 | B4 B2 | B4 B2 | (d>c B2) d2 | %10
w: O|for a|sight, a|pleas- ing|sight Of|our al-|migh- * * * ty|Fa- ther’s|throne! There|sits _ _ our|
w: Des-|cend from|heav’n, im-|mor- tal|Dove, Stoop|down and|take _ _ _ us|on thy|wings, And|mount, _ _ and|
w: Be-|yond, be-|yond this|low- er|sky, Up|where e-|ter- * * * nal|a- ges|roll; Where|so- * * lid|
 (=A>B c2) A2 | (B>c d2) B2 | c4 B2 | =A4 c2 | (B2 =A2) B2 | B4 =A2 | B4 G2 | B4 B2 | A4 B2 | %19
w: Sa- * * viour|crown’d _ _ with|light, Cloth’d|in a|bo- * dy|like our|own, There|sits our|Sa- viour|
w: bear _ _ us|far _ _ a-|bove The|reach of|these _ in-|fer- ior|things, And|mount, and|bear us|
w: plea- * * sures|ne- * * ver|die, And|fruits im-|mor- * tal|feast the|soul, Where|so- lid|plea- sures|
 (c>B A2) (FB) | B4 G2 | A4 A2 | B4 B2 | (c2 B2) A2 | G4 |] %25
w: crown’d _ _ with _|light, Cloth’d|in a|bo- dy|like _ our|own.|
w: far _ _ a- *|bove The|reach of|these in-|fer- * ior|things.|
w: ne- * * ver _|die, And|fruits im-|mor- tal|feast _ the|soul.|
V:4
 E,2 | B,,4 A,2 |"^6" G,4 A,2 |"^64" B,4"^75" B,,2 | E,4"^7" B,,2 | C,4"^6" D,2 | E,4 E,2 | %7
w: O|for a|sight, a|pleas- ing|sight Of|our al-|migh- ty|
w: Des-|cend from|heav’n, im-|mor- tal|Dove, Stoop|down and|take us|
w: Be-|yond, be-|yond this|low- er|sky, Up|where e-|ter- nal|
"^6" D,4 E,2 |"^64""^53" B,,4 B,,2 | B,,4 B,,2 |"^§" F,4 F,2 | B,4 B,2 |"^65" =A,4 B,2 | %13
w: Fa- ther’s|throne! There|sits our|Sa- viour|crown’d with|light, Cloth’d|
w: on thy|wings, And|mount, and|bear us|far a-|bove The|
w: a- ges|roll; Where|so- lid|plea- sures|ne- ver|die, And|
"^§" F,4"^65" =A,2 | (B,2"^7§" F,2) G,2 |"^65" (E,2"^64" F,2)"^7§" F,2 | B,,4 E,2 | %17
w: in a|bo- * dy|like _ our|own, There|
w: reach of|these _ in-|fer- * ior|things, And|
w: fruits im-|mor- * tal|feast _ the|soul, Where|
"^Notes:The order of staves in the source is Tenor - [Alto] - Air - [Bass], with the alto part printed in the treble clef an octave abovesounding pitch.Only the first verse of text is given in the source: subsequent verses have here been added editorially.In bar 3 and in bars 19-20 of this setting, the tenor and bass parts cross. If instruments are used to accompany this piece,doubling the bass part an octave lower would prevent inversion of the harmony in these passages.""^6" G,4 E,2 | %18
w: sits our|
w: mount, and|
w: so- lid|
 A,4"^6""^O what amazing joys they feel,While to their golden harps they sing,And sit on every heav’nly hill,And spread the triumphs of their king!When shall the day, dear Lord, appearThat I shall mount to dwell above,And stand and bow amongst ’em there,And view thy face, and sing, and love?" G,2 | %19
w: Sa- viour|
w: bear us|
w: plea- sures|
"^6""^-43" C4"^6" D2 |"^4""^3" E4 E,2 |"^53""^86" A,4"^75""^64""^53" A,2 |"^6" (G,2"^43" F,2) E,2 | %23
w: crown’d with|light, Cloth’d|in a|bo- * dy|
w: far a-|bove The|reach of|these _ in-|
w: ne- ver|die, And|fruits im-|mor- * tal|
"^6" (A,2"^64" B,2)"^75" B,,2 | E,4 |] %25
w: like _ our|own.|
w: fer- * ior|things.|
w: feast _ the|soul.|

